azure-patterns/svg-azure-resource-group-blue.svg

<svg xmlns="http://www.w3.org/2000/svg" viewBox="0 0 49 49">
                                
                            
<path d="M24.8106 22.0254C24.7003 22.0254 24.7003 22.0254 24.5899 21.9149L10.4658 13.7393C10.3555 13.6288 10.2451 13.5183 10.2451 13.4078C10.2451 13.2973 10.3555 13.0764 10.4658 13.0764L24.4796 4.90073C24.5899 4.79025 24.8106 4.79025 24.921 4.90073L39.0451 13.0764C39.1555 13.1869 39.2658 13.2973 39.2658 13.4078C39.2658 13.5183 39.1555 13.7393 39.0451 13.7393L25.0313 21.9149C24.921 21.9149 24.921 22.0254 24.8106 22.0254Z" fill="#0F74C4"></path>
<path d="M22.8243 41.912C22.714 41.912 22.714 41.912 22.6036 41.8015L8.47948 33.7363C8.36913 33.6258 8.25879 33.5154 8.25879 33.4049V16.9431C8.25879 16.8326 8.36913 16.6117 8.47948 16.6117C8.58982 16.5012 8.81051 16.5012 8.92086 16.6117L23.045 24.6768C23.1553 24.7873 23.2657 24.8978 23.2657 25.0083V41.3595C23.2657 41.47 23.1553 41.691 23.045 41.691C22.9347 41.912 22.8243 41.912 22.8243 41.912Z" fill="#0F5E9A"></path>
<path d="M26.7968 41.9118C26.6865 41.9118 26.6865 41.9118 26.5762 41.8013C26.4658 41.6909 26.3555 41.5804 26.3555 41.4699V25.2291C26.3555 25.1186 26.4658 24.8977 26.5762 24.8977L40.7003 16.722C40.8106 16.6115 41.0313 16.6115 41.1417 16.722C41.252 16.8325 41.3624 16.943 41.3624 17.0535V33.2943C41.3624 33.4047 41.252 33.6257 41.1417 33.6257L27.0175 41.8013C26.9072 41.9118 26.9072 41.9118 26.7968 41.9118Z" fill="#59B4D9"></path>
<path opacity="0.5" d="M26.7968 41.9118C26.6865 41.9118 26.6865 41.9118 26.5762 41.8013C26.4658 41.6909 26.3555 41.5804 26.3555 41.4699V25.2291C26.3555 25.1186 26.4658 24.8977 26.5762 24.8977L40.7003 16.722C40.8106 16.6115 41.0313 16.6115 41.1417 16.722C41.252 16.8325 41.3624 16.943 41.3624 17.0535V33.2943C41.3624 33.4047 41.252 33.6257 41.1417 33.6257L27.0175 41.8013C26.9072 41.9118 26.9072 41.9118 26.7968 41.9118Z" fill="#2E89CB"></path>
<path d="M9.91399 43.7898C9.6933 43.7898 9.47261 43.6794 9.25192 43.5689L2.63123 39.702C1.52778 39.0391 0.755371 37.7134 0.755371 36.3876V12.0816C0.755371 10.7558 1.52778 9.43007 2.63123 8.76718L9.25192 4.90032C9.91399 4.56888 10.7967 4.78984 11.1278 5.45273C11.5692 6.11562 11.3485 6.99947 10.6864 7.4414L4.06572 11.1978C3.84503 11.3083 3.51399 11.8607 3.51399 12.0816V36.3876C3.51399 36.6085 3.84503 37.1609 4.06572 37.2714L10.6864 41.1383C11.3485 41.5802 11.5692 42.3536 11.2381 43.0165C10.9071 43.4584 10.4657 43.7898 9.91399 43.7898Z" fill="#3F9AC5"></path>
<path d="M39.5967 4.79004C39.8173 4.79004 40.038 4.90052 40.2587 5.011L46.8794 8.87786C47.9829 9.54075 48.7553 10.8665 48.7553 12.1923V36.4983C48.7553 37.824 47.9829 39.1498 46.8794 39.8127L40.2587 43.6796C39.5967 44.1215 38.7139 43.79 38.3829 43.1272C37.9415 42.4643 38.2725 41.5804 38.9346 41.249L45.5553 37.3821C45.776 37.2716 46.107 36.7192 46.107 36.4983V12.1923C46.107 11.9713 45.776 11.4189 45.5553 11.3085L38.9346 7.4416C38.2725 6.99967 38.0518 6.11582 38.3829 5.45293C38.7139 5.011 39.1553 4.79004 39.5967 4.79004Z" fill="#3F9AC5"></path>
</svg>

<svg xmlns="http://www.w3.org/2000/svg" viewBox="0 0 49 49"><path d="M24.81 22.025c-.11 0-.11 0-.22-.11l-14.124-8.176c-.11-.11-.22-.22-.22-.331 0-.11.11-.332.22-.332L24.48 4.901c.11-.11.33-.11.441 0l14.124 8.175c.11.11.22.221.22.332 0 .11-.11.331-.22.331l-14.014 8.176c-.11 0-.11.11-.22.11z" fill="#0F74C4"/><path d="M22.824 41.912c-.11 0-.11 0-.22-.11L8.479 33.735c-.11-.11-.22-.22-.22-.331V16.943c0-.11.11-.331.22-.331.11-.11.332-.11.442 0l14.124 8.065c.11.11.22.22.22.331V41.36c0 .111-.11.332-.22.332-.11.221-.22.221-.22.221z" fill="#0F5E9A"/><path d="M26.797 41.912c-.11 0-.11 0-.22-.11-.111-.111-.222-.222-.222-.332V25.23c0-.111.11-.332.221-.332L40.7 16.722c.11-.11.331-.11.442 0 .11.11.22.221.22.331v16.241c0 .11-.11.332-.22.332L27.017 41.8c-.11.11-.11.11-.22.11z" fill="#59B4D9"/><path opacity=".5" d="M26.797 41.912c-.11 0-.11 0-.22-.11-.111-.111-.222-.222-.222-.332V25.23c0-.111.11-.332.221-.332L40.7 16.722c.11-.11.331-.11.442 0 .11.11.22.221.22.331v16.241c0 .11-.11.332-.22.332L27.017 41.8c-.11.11-.11.11-.22.11z" fill="#2E89CB"/><path d="M9.914 43.79c-.22 0-.441-.11-.662-.221l-6.62-3.867C1.527 39.039.754 37.713.754 36.388V12.082c0-1.326.773-2.652 1.876-3.315L9.251 4.9c.663-.331 1.546-.11 1.877.553.441.663.22 1.546-.442 1.988l-6.62 3.757c-.221.11-.552.663-.552.884v24.306c0 .22.331.773.552.883l6.62 3.867c.662.442.883 1.216.552 1.879-.33.441-.772.773-1.324.773zM39.597 4.79c.22 0 .441.11.662.221l6.62 3.867c1.104.663 1.876 1.989 1.876 3.314v24.306c0 1.326-.772 2.652-1.876 3.315l-6.62 3.867c-.662.441-1.545.11-1.876-.553-.442-.663-.11-1.547.552-1.878l6.62-3.867c.221-.11.552-.663.552-.884V12.192c0-.22-.331-.773-.552-.883l-6.62-3.867c-.663-.442-.883-1.326-.552-1.99.33-.441.772-.662 1.214-.662z" fill="#3F9AC5"/></svg>
